X:181
T:Twenty One Highland + (h)
B:NFID.081a
181twenty
S:JD
L:1/8
M:C
R:hornpipe
Q:280
K:Am
CEA,B, CA,B,C|B,DG,D B,DA,G,|CEA,B, CEC2|1 B,2G,B, A,2A,B,:|\
[2 B,2G,B, A,DDd||
c2ec acec|c2ec (3ege (3dBG|c2ec acec|(3ege (3dcB A2AB|
c2ec acec|c2ec (3ege (3dBG|(3aaa ag (3e^fg (3^fga|\
(3gag (3^fed (3cBA (3GED||
= = =
P:simplified version
ceAB cABc|BdGd BdAG|ceAB cec2|1 B2GB A2AB:|\
[2 B2GB Add2||
c2ec acec|c2ec e2dG|c2ec acec|e2dB A2AB|
c2ec acec|c2ec e2dG|a2ag eg^fa|g2^fd cAGD||

%%%

